icons/1_Primary/Best Buy.svg

<svg xmlns="http://www.w3.org/2000/svg" width="1024" height="1024" fill="none">
   <g clip-path="url(#a)">
      <path fill="#728DBE" d="M512 1024c282.77 0 512-229.23 512-512S794.77 0 512 0 0 229.23 0 512s229.23 512 512 512Z"/>
      <path fill="#fff" d="M360.9 427.2C371.3 423 383 414.3 383 396c0-23.4-23.2-39.3-54.5-39.3H256V506h78.2c30.8 0 59.2-10.8 59.2-42.5 0-21.4-15.5-31.2-32.5-36.3Zm-57-35.6h17.6c7.2 0 12.6 5.6 12.6 11.3 0 5.3-5.7 11-12.6 11h-17.6v-22.3Zm21.8 80.1h-21.8v-26.9h23.2c8.1 0 14.9 6.2 14.9 13.2.1 7.5-6.3 13.7-16.3 13.7Zm74 121.1c10.4-4.2 22.1-12.9 22.1-31.2 0-23.4-23.2-39.3-54.5-39.3h-72.5v149.3H373c30.8 0 59.2-10.8 59.2-42.5-.1-21.4-15.5-31.2-32.5-36.3Zm-57.1-35.6h17.6c7.2 0 12.6 5.6 12.6 11.3 0 5.3-5.7 11-12.6 11h-17.6v-22.3Zm21.9 80.1h-21.8v-26.9h23.2c8.1 0 14.9 6.2 14.9 13.2 0 7.5-6.4 13.7-16.3 13.7Zm32.6-131.2V356.8h120.4v36.1h-72.7v19.6h59v33.8h-59v23.9h72.7v35.9H397.1Zm185.7 4.3c33.9 0 61-19.3 61-50.7 0-50.6-65.8-42.8-65.8-58.5 0-6.1 6.4-9.3 13-9.3 11.3 0 19.5 7.4 19.5 7.4l28.3-27c-11.3-10.8-29.2-19.8-53.3-19.8-36.2 0-59.8 21.5-59.8 47.4 0 51.2 64.8 43.8 64.8 59.9 0 5.6-5.4 11.3-15.2 11.3-11.2 0-20-6.7-26.9-12.5l-28.5 27.1c11.5 11.2 29.9 24.7 62.9 24.7Zm97.9-4.3V392.7h-39.4v-35.9H768v35.9h-39.4v113.4h-47.9Zm-246.9 16.2h47.8v89.4c0 9.1 9 17.5 18.5 17.5 8.9 0 17.9-7.6 17.9-17.9v-89h47.6v88.4c0 35.1-29.1 63-66.7 63-37.9 0-65-30.4-65-64.9l-.1-86.5Zm190.5 149.3v-53.4l-56.1-96h48.3l31.8 51.4 31.9-51.4h48.4l-56.3 96.5v52.8h-48v.1ZM728.6 604l-28.2 28.2v38l28.2 28.2h119.2V604H728.6Zm-11 53.5c-3.5 0-6.3-2.8-6.3-6.3s2.8-6.3 6.3-6.3 6.3 2.8 6.3 6.3-2.8 6.3-6.3 6.3Z"/>
   </g>
   <defs>
      <clipPath id="a">
         <path fill="#fff" d="M0 0h1024v1024H0z"/>
      </clipPath>
   </defs>
</svg>

<svg width="1024" height="1024" viewBox="0 0 1024 1024" fill="none" xmlns="http://www.w3.org/2000/svg">
<g clip-path="url(#clip0_2_1575)">
<path d="M512 1024C794.77 1024 1024 794.77 1024 512C1024 229.23 794.77 0 512 0C229.23 0 0 229.23 0 512C0 794.77 229.23 1024 512 1024Z" fill="#728DBE"/>
<path d="M360.9 427.2C371.3 423 383 414.3 383 396C383 372.6 359.8 356.7 328.5 356.7H256V506H334.2C365 506 393.4 495.2 393.4 463.5C393.4 442.1 377.9 432.3 360.9 427.2ZM303.9 391.6H321.5C328.7 391.6 334.1 397.2 334.1 402.9C334.1 408.2 328.4 413.9 321.5 413.9H303.9V391.6ZM325.7 471.7H303.9V444.8H327.1C335.2 444.8 342 451 342 458C342.1 465.5 335.7 471.7 325.7 471.7ZM399.7 592.8C410.1 588.6 421.8 579.9 421.8 561.6C421.8 538.2 398.6 522.3 367.3 522.3H294.8V671.6H373C403.8 671.6 432.2 660.8 432.2 629.1C432.1 607.7 416.7 597.9 399.7 592.8ZM342.6 557.2H360.2C367.4 557.2 372.8 562.8 372.8 568.5C372.8 573.8 367.1 579.5 360.2 579.5H342.6V557.2ZM364.5 637.3H342.7V610.4H365.9C374 610.4 380.8 616.6 380.8 623.6C380.8 631.1 374.4 637.3 364.5 637.3ZM397.1 506.1V356.8H517.5V392.9H444.8V412.5H503.8V446.3H444.8V470.2H517.5V506.1H397.1ZM582.8 510.4C616.7 510.4 643.8 491.1 643.8 459.7C643.8 409.1 578 416.9 578 401.2C578 395.1 584.4 391.9 591 391.9C602.3 391.9 610.5 399.3 610.5 399.3L638.8 372.3C627.5 361.5 609.6 352.5 585.5 352.5C549.3 352.5 525.7 374 525.7 399.9C525.7 451.1 590.5 443.7 590.5 459.8C590.5 465.4 585.1 471.1 575.3 471.1C564.1 471.1 555.3 464.4 548.4 458.6L519.9 485.7C531.4 496.9 549.8 510.4 582.8 510.4ZM680.7 506.1V392.7H641.3V356.8H768V392.7H728.6V506.1H680.7ZM433.8 522.3H481.6V611.7C481.6 620.8 490.6 629.2 500.1 629.2C509 629.2 518 621.6 518 611.3V522.3H565.6V610.7C565.6 645.8 536.5 673.7 498.9 673.7C461 673.7 433.9 643.3 433.9 608.8L433.8 522.3ZM624.3 671.6V618.2L568.2 522.2H616.5L648.3 573.6L680.2 522.2H728.6L672.3 618.7V671.5H624.3V671.6ZM728.6 604L700.4 632.2V670.2L728.6 698.4H847.8V604H728.6ZM717.6 657.5C714.1 657.5 711.3 654.7 711.3 651.2C711.3 647.7 714.1 644.9 717.6 644.9C721.1 644.9 723.9 647.7 723.9 651.2C723.9 654.7 721.1 657.5 717.6 657.5Z" fill="white"/>
</g>
<defs>
<clipPath id="clip0_2_1575">
<rect width="1024" height="1024" fill="white"/>
</clipPath>
</defs>
</svg>
